ufans-frontend-package/public/assets/images/new-settings/incoming-video-call.svg

<?xml version="1.0"?>
<svg xmlns="http://www.w3.org/2000/svg" xmlns:xlink="http://www.w3.org/1999/xlink" xmlns:svgjs="http://svgjs.com/svgjs" version="1.1" width="512" height="512" x="0" y="0" viewBox="0 0 512 512" style="enable-background:new 0 0 512 512" xml:space="preserve" class=""><g><path xmlns="http://www.w3.org/2000/svg" d="m387.528 121.642a20 20 0 0 0 -18.72-1.908l-42.9 17.549c-1.09-18.3-15.7-32.848-33.5-32.848h-143.118c-18.515 0-33.577 15.719-33.577 35.042v122.743c0 19.322 15.062 35.042 33.577 35.042h143.11c17.808 0 32.416-14.545 33.5-32.849l42.9 17.549a20 20 0 0 0 27.572-18.511v-125.205a20 20 0 0 0 -8.844-16.604zm-101.549 135.62h-130.266v-112.827h130.266zm70.4-23.6-30.4-12.435v-40.756l30.4-12.436zm94.433-233.662h-389.624a47.884 47.884 0 0 0 -47.83 47.83v306.036a47.884 47.884 0 0 0 47.83 47.83h63.493v90.304a20 20 0 0 0 34.224 14.059l103.147-104.359h188.76a47.884 47.884 0 0 0 47.83-47.83v-306.04a47.884 47.884 0 0 0 -47.83-47.83zm7.83 353.866a7.839 7.839 0 0 1 -7.83 7.83h-197.112a20 20 0 0 0 -14.224 5.942l-74.794 75.675v-61.613a20 20 0 0 0 -20-20h-83.494a7.839 7.839 0 0 1 -7.83-7.83v-306.04a7.839 7.839 0 0 1 7.83-7.83h389.624a7.839 7.839 0 0 1 7.83 7.83z" fill="#6661e7" data-original="#000000" class=""/></g></svg>

<svg xmlns="http://www.w3.org/2000/svg" width="485.284" height="512" viewBox="0 0 485.284 512">
  <g id="incoming-video-call" transform="translate(-13.358)">
    <path id="Path_1" data-name="Path 1" d="M387.528,121.642a20,20,0,0,0-18.72-1.908l-42.9,17.549c-1.09-18.3-15.7-32.848-33.5-32.848H149.29c-18.515,0-33.577,15.719-33.577,35.042V262.22c0,19.322,15.062,35.042,33.577,35.042H292.4c17.808,0,32.416-14.545,33.5-32.849l42.9,17.549a20,20,0,0,0,27.572-18.511V138.246a20,20,0,0,0-8.852-16.61ZM285.979,257.262H155.713V144.435H285.979Zm70.4-23.6-30.4-12.435V180.471l30.4-12.436ZM450.812,0H61.188a47.884,47.884,0,0,0-47.83,47.83V353.866a47.884,47.884,0,0,0,47.83,47.83h63.493V492A20,20,0,0,0,158.9,506.059L262.052,401.7h188.76a47.884,47.884,0,0,0,47.83-47.83V47.83A47.884,47.884,0,0,0,450.812,0Zm7.83,353.866a7.839,7.839,0,0,1-7.83,7.83H253.7a20,20,0,0,0-14.222,5.94l-74.8,75.677V381.7a20,20,0,0,0-20-20H61.188a7.839,7.839,0,0,1-7.83-7.83V47.83A7.839,7.839,0,0,1,61.188,40H450.812a7.839,7.839,0,0,1,7.83,7.83Z" fill="#e44499"/>
  </g>
</svg>
